X: 305
T: A Parcel Of Land
R: reel
M: 4/4
K: Gmajor
G3B d4|efga gedB|AE (3EEE ABcd|fd (3ddd fdcA|
BGGG DGGG|efga gedB|Acag fdcA|1 FGAF GFED:|2 AGFA GABd||
|:(3.g.a.g fa gedc|BcdB GABd|eA (3AAA eAeg|fd (3ddd fdcA|
dggf gedc|Bggf gdBd|ceag fdcA|1 AGFA GABd:|2 FGAF G4||

